symbols/be/PVA-{150}.svg

<?xml version="1.0" encoding="UTF-8" standalone="no"?>
<!-- Initially created with Inkscape, optimized by hand -->

<svg
   version="1.1"
   width="20"
   height="17.320995"
   id="svg1"
   xmlns="http://www.w3.org/2000/svg"
   xmlns:svg="http://www.w3.org/2000/svg">
  <defs
     id="defs1" />
  <path
     id="Fond"
     d="M 20,-1.2580566e-6 H 3.1098633e-6 L 10.000003,17.320999 Z"
     fill="#edd827"
     style="stroke-width:0.1" />
  <path
     d="m 8.8460701,9.2268437 v -6.389353 c 0,-0.106667 -0.032,-0.192001 -0.106667,-0.266668 -0.064,-0.07467 -0.362667,-0.149334 -0.501335,-0.01067 l -1.429337,1.429337 c -0.149334,0.149334 -0.096,0.426668 0.01067,0.533335 0.096,0.106667 0.352001,0.128001 0.490669,-0.01067 l 0.821335,-0.832003 v 5.557351 c 0,0.192001 0.170668,0.352001 0.362668,0.352001 0.192001,0 0.352001,-0.16 0.352001,-0.362668 z m 4.4373379,-6.389353 c 0,-0.202668 -0.160001,-0.362668 -0.352002,-0.362668 h -2.848009 c -0.096,0 -0.1706669,0.02133 -0.2346669,0.08533 -0.08533,0.08533 -0.117334,0.16 -0.117334,0.277334 v 2.837342 c 0,0.117334 0.032,0.192001 0.117334,0.277334 0.064,0.064 0.138667,0.08533 0.2346669,0.08533 h 1.408005 c 0.298667,0 0.501335,0.064 0.725336,0.266667 0.245334,0.224001 0.341334,0.458669 0.341334,0.800003 v 0.704002 c 0,0.309334 -0.064,0.512002 -0.277334,0.746669 -0.181334,0.192001 -0.458668,0.320001 -0.789336,0.320001 h -1.429338 c -0.1920009,0 -0.3520009,0.170667 -0.3520009,0.362668 0,0.192001 0.16,0.352001 0.3520009,0.352001 h 1.429338 c 0.554668,0 1.045337,-0.224001 1.333337,-0.565335 0.309335,-0.341334 0.437335,-0.704002 0.437335,-1.216004 v -0.704002 c 0,-0.597335 -0.266667,-1.109337 -0.618668,-1.397338 -0.298668,-0.245334 -0.84267,-0.384001 -1.152004,-0.384001 h -1.045337 v -2.13334 h 2.485341 c 0.192001,0 0.352002,-0.138667 0.352002,-0.352001 z"
     id="text1"
     style="font-size:10.6667px;font-family:Isonorm;-inkscape-font-specification:'Isonorm, Normal';fill-rule:evenodd;stroke-width:0.08"
     aria-label="15" />
</svg>

<?xml version="1.0" encoding="UTF-8"?>
<svg xmlns="http://www.w3.org/2000/svg" xmlns:xlink="http://www.w3.org/1999/xlink" width="20" height="17.320995" viewBox="0 0 20 17.320995">
<path fill-rule="nonzero" fill="rgb(92.941176%, 84.705882%, 15.294118%)" fill-opacity="1" d="M 20 0 L 0 0 L 10 17.320312 Z M 20 0 "/>
<path fill-rule="evenodd" fill="rgb(0%, 0%, 0%)" fill-opacity="1" d="M 8.847656 9.226562 L 8.847656 2.835938 C 8.847656 2.730469 8.8125 2.644531 8.738281 2.570312 C 8.675781 2.496094 8.375 2.421875 8.238281 2.558594 L 6.808594 3.988281 C 6.660156 4.140625 6.710938 4.417969 6.820312 4.523438 C 6.914062 4.628906 7.171875 4.652344 7.308594 4.511719 L 8.132812 3.679688 L 8.132812 9.238281 C 8.132812 9.429688 8.300781 9.589844 8.492188 9.589844 C 8.6875 9.589844 8.847656 9.429688 8.847656 9.226562 Z M 13.285156 2.835938 C 13.285156 2.636719 13.125 2.476562 12.929688 2.476562 L 10.082031 2.476562 C 9.988281 2.476562 9.914062 2.496094 9.847656 2.558594 C 9.761719 2.644531 9.730469 2.71875 9.730469 2.835938 L 9.730469 5.675781 C 9.730469 5.792969 9.761719 5.867188 9.847656 5.953125 C 9.914062 6.015625 9.988281 6.039062 10.082031 6.039062 L 11.492188 6.039062 C 11.789062 6.039062 11.992188 6.101562 12.214844 6.304688 C 12.460938 6.527344 12.558594 6.761719 12.558594 7.105469 L 12.558594 7.808594 C 12.558594 8.117188 12.492188 8.320312 12.28125 8.554688 C 12.097656 8.746094 11.820312 8.875 11.492188 8.875 L 10.0625 8.875 C 9.871094 8.875 9.710938 9.046875 9.710938 9.238281 C 9.710938 9.429688 9.871094 9.589844 10.0625 9.589844 L 11.492188 9.589844 C 12.046875 9.589844 12.535156 9.367188 12.824219 9.023438 C 13.132812 8.683594 13.261719 8.320312 13.261719 7.808594 L 13.261719 7.105469 C 13.261719 6.507812 12.996094 5.996094 12.644531 5.707031 C 12.34375 5.460938 11.800781 5.324219 11.492188 5.324219 L 10.445312 5.324219 L 10.445312 3.191406 L 12.929688 3.191406 C 13.125 3.191406 13.285156 3.050781 13.285156 2.835938 Z M 13.285156 2.835938 "/>
</svg>
